X: 10115
T: Difyrrwch Gwŷr Y Bontnewydd
R: jig
M: 6/8
K: Gmajor
|:GAB BcB|cAA AGF|GAB cAB|1 GEE E2 E/F/:|2 GEE E2 e/f/||
|:ggg fff|ege d2d|efe gfe|dBB B2 B/c/|
ded dcB|cAA AGF|GAB cAB|1 GEE E2 e/f/:|2 GEE E3||

